X: 2
T: West Clare
R: reel
M: 4/4
L: 1/8
K: Ador
egdB A2AG|EA~A2 ABcd|e2dB ABAG|EGGF GABd:|e2ge edBd|eA~A2 eA~A2|e2ge edBd|d2ef g2fg:|


Tune 999	Setting 14210

